X:278
T:Willow Tree - Bucknell
L:1/8
M:6/8
K:G
D | G2G G2A | BGe d3 | GAB A2A | G3- G2 :| 
A | B2A B2A | B2A G2A | B2 A B2 A | B2 c d2 D | 
G2G G2A | BGe d3 | GAB A2A | G3- G2 :| 

